X: 1
T: Zodiac
C:
R: jig
N: Sometimes known as Zudio.
Z: 2014 John Chambers <jc:trillian.mit.edu>
M: 6/8
L: 1/8
K: D
%%continueall 1
|:\
"G"D2D B3 | "D7"A2A "G"B3 | "D7"D2D "G"B2A- | "D7"A2A "G"B3 | "D7"D2D "G"B3 | "D7"A2A "G"B3 |
w: Here we go zo-di-ac zo-di-ac zo-_di-ac here we go zo-di-ac
"C"F2E- "D7"E2D- | "G"D6 || "G"D3 B3 | "D7"A3 "G"B3 | "D7"D3 "G"B2A- | "D7"A3 "G"B3 |
w: all day_ long._  Step back Sal-ly, Sal-ly, Sal-*ly,
"D7"d3 "G"B3 | "D7"A3 "G"B3 | "C"F2E- "D7"E2D- | "G"D3 z3 :| "G"d2d B2B | "D7"A2A "G"B2A |
w: step back Sal-ly all day_ long._ Look-ing down the al-ley and a'
"D7"d2A "G"B2A- | "D7"A2A "G"B2A | "D7"d3 "G"B3 | "D7"A3 "G"G3 | "C"F2E- "D7"E2D- | "G"D3 "D7"z2A |
w: what do I see,_ I see a big, fat man from Ten-nes-*see._ I
"G"d2d B3 | "D7"A2A "G"B2A | "D7"d2B "G"B2A- |1 "D7"A3 "^spoken..."B2B | "D7"d3 "G"d2d | "..."d3 d2d ||
w: bet you five dol-lars that you can't do_ this_ to the front to the back to the
d2d- d2d- | d3 d2d | d3 d2d | d3 d2d | d2d- d2d- | d3 d2d |
w: si-si-*side._ to the front to the back to the si-si-_side,_ to the
d2d- d2d- | d3 z3 :|2 A2d d3 | d3-d2 d | d2d d2d | d2d- d2d |
w: si-si-*side._ | ~ You lean way_ back,_ you got a hump on_ your
d2 |: d d2d | d2d- d3d- | d2d d2d | d2d- d2d- | d3 :|
w: back, you do the ca-mel's_ walk,_ you do the ca-mel's_ walk._
